src/svg/resizenorthwest.svg

<?xml version="1.0" encoding="UTF-8" standalone="no"?>
<svg width="35px" height="35px" viewBox="0 0 35 35" version="1.1" xmlns="http://www.w3.org/2000/svg" xmlns:xlink="http://www.w3.org/1999/xlink">
    <defs></defs>
    <g id="Page-1" stroke="none" stroke-width="1" fill="none" fill-rule="evenodd">
        <g id="resizenorthwest">
            <g id="bg-copy" fill="#FFFFFF" opacity="0.00999999978">
                <rect id="bg" x="0" y="0" width="35" height="35"></rect>
            </g>
            <path d="M12,12 L12,20.485 L14.829,17.656 L19.78,22.605 L22.607,19.778 L17.657,14.829 L20.486,12 L12,12 Z" id="arrow-border" fill="#FFFFFF"></path>
            <path d="M19.7793,21.1914 L14.8283,16.2424 L13.0003,18.0704 L13.0003,12.9994 L18.0713,12.9994 L16.2423,14.8284 L21.1933,19.7774 L19.7793,21.1914 Z" id="arrow" fill="#000000"></path>
        </g>
    </g>
</svg>

<svg height="35" viewBox="0 0 35 35" width="35" xmlns="http://www.w3.org/2000/svg"><g fill="none" fill-rule="evenodd"><path d="m12 12v8.485l2.829-2.829 4.951 4.949 2.827-2.827-4.95-4.949 2.829-2.829z" fill="#fff"/><path d="m19.7793 21.1914-4.951-4.949-1.828 1.828v-5.071h5.071l-1.829 1.829 4.951 4.949z" fill="#000"/></g></svg>
